svg/opentelemetry.svg

<?xml version="1.0" encoding="UTF-8"?>
<svg xmlns="http://www.w3.org/2000/svg" xmlns:xlink="http://www.w3.org/1999/xlink" width="32" height="32" viewBox="0 0 32 32">
<path fill-rule="nonzero" fill="rgb(96.078431%, 65.882353%, 0%)" fill-opacity="1" d="M 16.914062 17.449219 C 16.027344 18.289062 15.664062 19.546875 15.972656 20.730469 C 16.277344 21.914062 17.199219 22.835938 18.382812 23.144531 C 19.566406 23.449219 20.824219 23.085938 21.664062 22.199219 C 22.914062 20.878906 22.886719 18.800781 21.601562 17.515625 C 20.3125 16.226562 18.234375 16.199219 16.914062 17.449219 M 20.464844 21.003906 C 19.8125 21.652344 18.757812 21.652344 18.109375 21.003906 C 17.460938 20.351562 17.460938 19.296875 18.113281 18.648438 C 18.761719 18 19.816406 18 20.464844 18.648438 C 21.117188 19.300781 21.117188 20.355469 20.464844 21.003906 M 21.605469 0.917969 L 19.546875 2.976562 C 19.144531 3.382812 19.144531 4.039062 19.546875 4.445312 L 27.585938 12.484375 C 27.992188 12.886719 28.648438 12.886719 29.054688 12.484375 L 31.113281 10.425781 C 31.515625 10.019531 31.515625 9.363281 31.113281 8.957031 L 23.070312 0.917969 C 22.664062 0.515625 22.011719 0.515625 21.605469 0.917969 M 7.183594 27.222656 C 7.359375 27.046875 7.460938 26.808594 7.460938 26.558594 C 7.460938 26.308594 7.359375 26.070312 7.183594 25.894531 L 6.136719 24.851562 C 5.960938 24.675781 5.722656 24.578125 5.476562 24.578125 C 5.226562 24.578125 4.988281 24.675781 4.8125 24.851562 L 2.648438 27.011719 L 2.644531 27.015625 L 2.050781 26.421875 C 1.71875 26.125 1.210938 26.140625 0.898438 26.457031 C 0.582031 26.773438 0.570312 27.277344 0.867188 27.609375 L 4.425781 31.167969 C 4.636719 31.390625 4.949219 31.480469 5.246094 31.402344 C 5.542969 31.328125 5.773438 31.097656 5.847656 30.800781 C 5.925781 30.503906 5.835938 30.191406 5.613281 29.980469 L 5.019531 29.386719 L 5.023438 29.386719 Z M 7.183594 27.222656 "/>
<path fill-rule="nonzero" fill="rgb(25.882353%, 36.078431%, 78.039216%)" fill-opacity="1" d="M 18.074219 6.828125 L 13.5 11.402344 C 13.09375 11.8125 13.09375 12.472656 13.5 12.882812 L 16.324219 15.707031 C 18.355469 14.25 21.144531 14.476562 22.917969 16.242188 L 25.203125 13.957031 C 25.609375 13.546875 25.609375 12.886719 25.203125 12.476562 L 19.554688 6.828125 C 19.359375 6.632812 19.09375 6.519531 18.816406 6.519531 C 18.539062 6.519531 18.269531 6.632812 18.074219 6.828125 M 15.136719 16.898438 L 13.46875 15.226562 C 13.074219 14.839844 12.441406 14.839844 12.046875 15.226562 L 6.167969 21.113281 C 5.777344 21.507812 5.777344 22.140625 6.167969 22.535156 L 9.5 25.867188 C 9.890625 26.257812 10.53125 26.257812 10.921875 25.867188 L 14.703125 22.078125 C 13.894531 20.402344 14.058594 18.417969 15.136719 16.898438 "/>
</svg>

<svg role="img" viewBox="0 0 32 32" height="32" width="32" xmlns="http://www.w3.org/2000/svg"><path d="M16.914 17.45a3.36 3.36 0 1 0 4.75 4.75 3.36 3.36 0 0 0-4.75-4.75m3.55 3.554a1.664 1.664 0 1 1-2.352-2.356 1.664 1.664 0 0 1 2.353 2.356M21.605.918l-2.058 2.059a1.044 1.044 0 0 0 0 1.468l8.039 8.04a1.044 1.044 0 0 0 1.469 0l2.058-2.06a1.044 1.044 0 0 0 0-1.468L23.07.918a1.04 1.04 0 0 0-1.465 0M7.184 27.223a.94.94 0 0 0 .277-.664.94.94 0 0 0-.277-.664l-1.047-1.043a.935.935 0 0 0-1.324 0l-2.165 2.16-.003.004-.594-.594a.837.837 0 0 0-1.153.035.837.837 0 0 0-.03 1.152l3.558 3.559c.21.223.523.312.82.234a.825.825 0 0 0 .602-.601.834.834 0 0 0-.235-.82l-.593-.594h.003Zm0 0" fill="rgb(96.078431%, 65.882353%, 0%)"/><path d="M18.074 6.828 13.5 11.402a1.052 1.052 0 0 0 0 1.48l2.824 2.825a5.118 5.118 0 0 1 6.594.535l2.285-2.285c.406-.41.406-1.07 0-1.48l-5.648-5.649a1.047 1.047 0 0 0-.739-.308c-.277 0-.546.113-.742.308m-2.937 10.07-1.668-1.671a1.016 1.016 0 0 0-1.422 0l-5.879 5.886a1.01 1.01 0 0 0 0 1.422L9.5 25.867c.39.39 1.031.39 1.422 0l3.781-3.789a5.112 5.112 0 0 1 .434-5.18" fill="rgb(25.882353%, 36.078431%, 78.039216%)"/></svg>
